; generated by Slic3r 1.2.8 on 2015-06-25 at 22:32:41

; external perimeters extrusion width = 0.50mm
; perimeters extrusion width = 0.72mm
; infill extrusion width = 0.72mm
; solid infill extrusion width = 0.72mm
; top infill extrusion width = 0.72mm

M190 S50 ; set bed temperature
M104 S190 ; set temperature
G28 ; home all axes
G1 Z5 F5000 ; lift nozzle

M109 S190 ; wait for temperature to be reached
G21 ; set units to millimeters
G90 ; use absolute coordinates
M82 ; use absolute distances for extrusion
G92 E0
G1 Z0.300 F7800.000
G1 E-4.00000 F2400.00000
G92 E0
G1 X25.544 Y64.627 F7800.000
G1 E4.00000 F2400.00000
M204 S1800
G1 X27.366 Y64.223 E4.13089 F1800.000
G1 X29.266 Y63.992 E4.26519
G1 X30.424 Y63.922 E4.34654
G1 X160.424 Y63.922 E13.46548
G1 X163.830 Y64.547 E13.70841
G1 X165.621 Y65.225 E13.84271 F1800.000
G1 X168.038 Y66.568 E14.03666
G1 X169.405 Y67.838 E14.16754
G1 X170.675 Y69.271 E14.30184
G1 X172.191 Y71.583 E14.49579
G1 X172.811 Y73.342 E14.62664
G1 X173.270 Y75.201 E14.76094
G1 X173.549 Y77.500 E14.92340
G1 X173.549 Y112.500 E17.37850
G1 X173.270 Y114.799 E17.54096
G1 X172.811 Y116.659 E17.67529
G1 X171.770 Y119.220 E17.86925
G1 X170.675 Y120.729 E18.00006
G1 X169.405 Y122.162 E18.13436
G1 X167.293 Y123.947 E18.32832
G1 X165.621 Y124.774 E18.45917
G1 X163.830 Y125.453 E18.59349
G1 X160.424 Y126.078 E18.83642
G1 X30.424 Y126.078 E27.95536
G1 X29.266 Y126.008 E28.03671
G1 X27.366 Y125.777 E28.17100
G1 X24.697 Y125.052 E28.36496
G1 X23.066 Y124.146 E28.49585
G1 X21.490 Y123.059 E28.63015
G1 X19.465 Y121.177 E28.82410
G1 X18.442 Y119.617 E28.95493
G1 X17.552 Y117.922 E29.08924
G1 X16.632 Y115.314 E29.28319
G1 X16.451 Y113.457 E29.41407
G1 X16.451 Y76.543 E32.00347
G1 X16.849 Y73.806 E32.19743
G1 X17.552 Y72.078 E32.32831
G1 X18.442 Y70.383 E32.46262
G1 X20.066 Y68.145 E32.65657
G1 X21.490 Y66.941 E32.78738
G1 X23.066 Y65.854 E32.92169
G1 X25.477 Y64.660 E33.11038
G1 X25.783 Y65.113 F7800.000
G1 X27.430 Y64.755 E33.22864 F1800.000
G1 X29.331 Y64.524 E33.36294
G1 X30.424 Y64.458 E33.43976
G1 X160.424 Y64.458 E42.55869
G1 X163.641 Y65.047 E42.78808
G1 X165.431 Y65.726 E42.92238 F1800.000
G1 X167.774 Y67.040 E43.11082
G1 X169.004 Y68.193 E43.22907
G1 X170.274 Y69.626 E43.36336
G1 X171.738 Y71.878 E43.55181
G1 X172.291 Y73.470 E43.67003
G1 X172.750 Y75.329 E43.80432
G1 X173.013 Y77.500 E43.95773
G1 X173.013 Y112.500 E46.41282
G1 X172.750 Y114.671 E46.56623
G1 X172.291 Y116.530 E46.70056
G1 X171.269 Y119.015 E46.88900
G1 X170.274 Y120.374 E47.00719
G1 X169.004 Y121.807 E47.14149
G1 X166.944 Y123.532 E47.32993
G1 X165.431 Y124.274 E47.44816
G1 X163.641 Y124.953 E47.58247
G1 X160.424 Y125.542 E47.81186
G1 X30.424 Y125.542 E56.93080
G1 X29.331 Y125.476 E57.00761
G1 X27.430 Y125.245 E57.14190
G1 X24.841 Y124.530 E57.33035
G1 X23.370 Y123.705 E57.44861
G1 X21.795 Y122.618 E57.58291
G1 X19.834 Y120.781 E57.77135
G1 X18.916 Y119.368 E57.88955
G1 X18.026 Y117.673 E58.02385
G1 X17.144 Y115.136 E58.21229
G1 X16.987 Y113.457 E58.33054
G1 X16.987 Y76.543 E60.91994
G1 X17.385 Y73.886 E61.10839
G1 X18.026 Y72.327 E61.22664
G1 X18.916 Y70.631 E61.36095
G1 X20.503 Y68.464 E61.54939
G1 X21.795 Y67.382 E61.66757
G1 X23.370 Y66.294 E61.80188
G1 X25.715 Y65.146 E61.98506
G1 X26.019 Y65.600 F7800.000
G1 X27.495 Y65.286 E62.09090 F1800.000
G1 X29.395 Y65.056 E62.22520
G1 X30.424 Y64.994 E62.29748
G1 X160.424 Y64.994 E71.41642
G1 X163.451 Y65.548 E71.63226
G1 X165.241 Y66.227 E71.76656 F1800.000
G1 X167.507 Y67.512 E71.94932
G1 X168.603 Y68.548 E72.05510
G1 X169.873 Y69.981 E72.18939
G1 X171.283 Y72.172 E72.37216
G1 X171.771 Y73.598 E72.47791
G1 X172.229 Y75.457 E72.61221
G1 X172.478 Y77.500 E72.75655
G1 X172.478 Y112.500 E75.21165
G1 X172.229 Y114.543 E75.35599
G1 X171.771 Y116.402 E75.49032
G1 X170.769 Y118.807 E75.67309
G1 X169.873 Y120.019 E75.77881
G1 X168.603 Y121.452 E75.91311
G1 X166.598 Y123.116 E76.09587
G1 X165.241 Y123.773 E76.20163
G1 X163.451 Y124.452 E76.33595
G1 X160.424 Y125.006 E76.55178
G1 X30.424 Y125.006 E85.67072
G1 X29.395 Y124.944 E85.74300
G1 X27.495 Y124.714 E85.87729
G1 X24.987 Y124.008 E86.06006
G1 X23.675 Y123.265 E86.16585
G1 X22.099 Y122.177 E86.30015
G1 X20.206 Y120.387 E86.48291
G1 X19.390 Y119.119 E86.58864
G1 X18.500 Y117.424 E86.72295
G1 X17.656 Y114.959 E86.90571
G1 X17.522 Y113.457 E87.01149
G1 X17.522 Y76.543 E89.60089
G1 X17.920 Y73.968 E89.78365
G1 X18.500 Y72.576 E89.88944
G1 X19.390 Y70.880 E90.02374
G1 X20.939 Y68.785 E90.20650
G1 X22.099 Y67.823 E90.31222
G1 X23.675 Y66.735 E90.44653
G1 X25.951 Y65.633 E90.62397
G1 E86.62397 F2400.00000
G92 E0
G1 X46.071 Y74.900 F7800.000
G1 E4.00000 F2400.00000
G1 X46.071 Y85.641 E4.75341 F1800.000
G1 X44.828 Y86.544 E4.86115
G1 X43.236 Y88.312 E5.02802
G1 X42.047 Y90.372 E5.19488
G1 X41.312 Y92.634 E5.36175
G1 X41.063 Y95.000 E5.52861
G1 X41.312 Y97.366 E5.69547
G1 X42.047 Y99.628 E5.86234
G1 X43.236 Y101.688 E6.02920
G1 X44.828 Y103.456 E6.19607
G1 X46.752 Y104.854 E6.36293
G1 X48.926 Y105.822 E6.52979
G1 X51.252 Y106.316 E6.69665
G1 X58.631 Y106.316 E7.21425
G1 X60.958 Y105.822 E7.38111
G1 X63.131 Y104.854 E7.54798
G1 X65.056 Y103.456 E7.71484
G1 X66.648 Y101.688 E7.88170
G1 X67.837 Y99.628 E8.04857
G1 X68.572 Y97.366 E8.21543
G1 X68.813 Y95.072 E8.37723
G1 X68.813 Y74.900 E9.79216
G1 X121.071 Y74.900 E13.45780
G1 X121.071 Y95.072 E14.87274
G1 X121.312 Y97.366 E15.03454
G1 X122.047 Y99.628 E15.20140
G1 X123.236 Y101.688 E15.36826
G1 X124.828 Y103.456 E15.53513
G1 X126.752 Y104.854 E15.70199
G1 X128.926 Y105.822 E15.86885
G1 X131.252 Y106.316 E16.03572
G1 X138.631 Y106.316 E16.55331
G1 X140.958 Y105.822 E16.72018
G1 X143.131 Y104.854 E16.88704
G1 X145.056 Y103.456 E17.05390
G1 X146.648 Y101.688 E17.22077
G1 X147.837 Y99.628 E17.38763
G1 X148.572 Y97.366 E17.55450
G1 X148.821 Y95.000 E17.72136
G1 X148.572 Y92.634 E17.88822
G1 X147.837 Y90.372 E18.05509
G1 X146.648 Y88.312 E18.22195
G1 X145.056 Y86.544 E18.38882
G1 X143.813 Y85.641 E18.49656
G1 X143.813 Y74.900 E19.24997
G1 X160.173 Y74.900 E20.39752
G1 X161.412 Y75.370 E20.49049
G1 X162.233 Y76.297 E20.57736
G1 X162.571 Y77.667 E20.67627
G1 X162.571 Y112.333 E23.10801
G1 X162.233 Y113.703 E23.20692
G1 X161.412 Y114.630 E23.29380
G1 X160.173 Y115.100 E23.38676
G1 X30.507 Y115.100 E32.48226
G1 X29.024 Y114.920 E32.58702
G1 X28.005 Y114.216 E32.67390
G1 X27.429 Y113.119 E32.76078
G1 X27.429 Y76.881 E35.30276
G1 X28.005 Y75.784 E35.38965
G1 X29.024 Y75.080 E35.47653
G1 X30.507 Y74.900 E35.58129
G1 X45.996 Y74.900 E36.66776
G1 X46.606 Y74.365 F7800.000
G1 X46.606 Y85.914 E37.47788 F1800.000
G1 X45.188 Y86.944 E37.60082
G1 X43.672 Y88.628 E37.75979
G1 X42.539 Y90.591 E37.91875
G1 X41.839 Y92.746 E38.07772
G1 X41.602 Y95.000 E38.23668
G1 X41.839 Y97.254 E38.39565
G1 X42.539 Y99.409 E38.55462
G1 X43.672 Y101.372 E38.71358
G1 X45.188 Y103.056 E38.87255
G1 X47.022 Y104.388 E39.03151
G1 X49.092 Y105.310 E39.19048
G1 X51.309 Y105.781 E39.34945
G1 X58.575 Y105.781 E39.85914
G1 X60.792 Y105.310 E40.01811
G1 X62.862 Y104.388 E40.17707
G1 X64.695 Y103.056 E40.33604
G1 X66.212 Y101.372 E40.49501
G1 X67.345 Y99.409 E40.65397
G1 X68.045 Y97.254 E40.81294
G1 X68.278 Y95.044 E40.96881
G1 X68.278 Y74.365 E42.41935
G1 X121.606 Y74.365 E46.16014
G1 X121.606 Y95.044 E47.61068
G1 X121.839 Y97.254 E47.76655
G1 X122.539 Y99.409 E47.92552
G1 X123.672 Y101.372 E48.08449
G1 X125.188 Y103.056 E48.24345
G1 X127.022 Y104.388 E48.40242
G1 X129.092 Y105.310 E48.56138
G1 X131.309 Y105.781 E48.72035
G1 X138.575 Y105.781 E49.23005
G1 X140.792 Y105.310 E49.38901
G1 X142.862 Y104.388 E49.54798
G1 X144.695 Y103.056 E49.70694
G1 X146.212 Y101.372 E49.86591
G1 X147.345 Y99.409 E50.02488
G1 X148.045 Y97.254 E50.18384
G1 X148.282 Y95.000 E50.34281
G1 X148.045 Y92.746 E50.50177
G1 X147.345 Y90.591 E50.66074
G1 X146.212 Y88.628 E50.81970
G1 X144.695 Y86.944 E50.97867
G1 X143.278 Y85.914 E51.10161
G1 X143.278 Y74.365 E51.91173
G1 X160.271 Y74.365 E53.10374
G1 X161.725 Y74.916 E53.21286
G1 X162.722 Y76.041 E53.31825
G1 X163.106 Y77.601 E53.43098
G1 X163.106 Y112.399 E55.87185
G1 X162.722 Y113.959 E55.98458
G1 X161.725 Y115.084 E56.08998
G1 X160.271 Y115.635 E56.19909
G1 X30.475 Y115.635 E65.30374
G1 X28.829 Y115.435 E65.42004
G1 X27.592 Y114.582 E65.52544
G1 X26.894 Y113.251 E65.63084
G1 X26.894 Y76.749 E68.19135
G1 X27.592 Y75.418 E68.29675
G1 X28.829 Y74.565 E68.40215
G1 X30.475 Y74.365 E68.51844
G1 X46.531 Y74.365 E69.64476
G1 X47.142 Y73.829 F7800.000
G1 X47.142 Y86.187 E70.51160 F1800.000
G1 X45.549 Y87.344 E70.64973
G1 X44.108 Y88.945 E70.80080
G1 X43.031 Y90.810 E70.95187
G1 X42.365 Y92.858 E71.10293
G1 X42.140 Y95.000 E71.25400
G1 X42.365 Y97.142 E71.40507
G1 X43.031 Y99.190 E71.55614
G1 X44.108 Y101.055 E71.70721
G1 X45.549 Y102.656 E71.85828
G1 X47.291 Y103.921 E72.00934
G1 X49.258 Y104.797 E72.16041
G1 X51.365 Y105.245 E72.31148
G1 X58.519 Y105.245 E72.81328
G1 X60.625 Y104.797 E72.96435
G1 X62.593 Y103.921 E73.11541
G1 X64.335 Y102.656 E73.26648
G1 X65.776 Y101.055 E73.41755
G1 X66.853 Y99.190 E73.56862
G1 X67.518 Y97.142 E73.71969
G1 X67.742 Y95.016 E73.86964
G1 X67.742 Y73.829 E75.35579
G1 X122.142 Y73.829 E79.17171
G1 X122.142 Y95.016 E80.65785
G1 X122.365 Y97.142 E80.80781
G1 X123.031 Y99.190 E80.95888
G1 X124.108 Y101.055 E81.10995
G1 X125.549 Y102.656 E81.26102
G1 X127.291 Y103.921 E81.41209
G1 X129.258 Y104.797 E81.56315
G1 X131.365 Y105.245 E81.71422
G1 X138.519 Y105.245 E82.21602
G1 X140.625 Y104.797 E82.36709
G1 X142.593 Y103.921 E82.51816
G1 X144.335 Y102.656 E82.66922
G1 X145.776 Y101.055 E82.82029
G1 X146.853 Y99.190 E82.97136
G1 X147.518 Y97.142 E83.12243
G1 X147.744 Y95.000 E83.27350
G1 X147.518 Y92.858 E83.42456
G1 X146.853 Y90.810 E83.57563
G1 X145.776 Y88.945 E83.72670
G1 X144.335 Y87.344 E83.87777
G1 X142.742 Y86.187 E84.01590
G1 X142.742 Y73.829 E84.88274
G1 X160.369 Y73.829 E86.11921
G1 X162.039 Y74.462 E86.24447
G1 X163.210 Y75.785 E86.36838
G1 X163.642 Y77.536 E86.49494
G1 X163.642 Y112.464 E88.94493
G1 X163.210 Y114.215 E89.07148
G1 X162.039 Y115.538 E89.19540
G1 X160.369 Y116.171 E89.32066
G1 X30.442 Y116.171 E98.43447
G1 X28.633 Y115.951 E98.56230
G1 X27.179 Y114.948 E98.68622
G1 X26.358 Y113.383 E98.81014
G1 X26.358 Y76.617 E101.38917
G1 X27.179 Y75.052 E101.51309
G1 X28.633 Y74.049 E101.63701
G1 X30.442 Y73.829 E101.76484
G1 X47.067 Y73.829 E102.93100
G1 X46.892 Y74.262 F7800.000
G1 X45.759 Y75.853 F7800.000
G1 X45.118 Y75.212 E102.99473 F1800.000
G1 X44.358 Y75.212 E103.04820
G1 X45.759 Y76.613 E103.18755
G1 X45.759 Y77.373 E103.24101
G1 X43.599 Y75.212 E103.45597
G1 X42.839 Y75.212 E103.50944
G1 X45.759 Y78.132 E103.80002
G1 X45.759 Y78.892 E103.85348
G1 X42.079 Y75.212 E104.21967
G1 X41.319 Y75.212 E104.27314
G1 X45.759 Y79.652 E104.71494
G1 X45.759 Y80.412 E104.76841
G1 X40.559 Y75.212 E105.28583
G1 X39.799 Y75.212 E105.33929
G1 X45.759 Y81.172 E105.93232
G1 X45.759 Y81.932 E105.98579
G1 X39.039 Y75.212 E106.65443
G1 X38.280 Y75.212 E106.70790
G1 X45.759 Y82.692 E107.45216
G1 X45.759 Y83.451 E107.50563
G1 X37.520 Y75.212 E108.32550
G1 X36.760 Y75.212 E108.37897
G1 X45.759 Y84.211 E109.27445
G1 X45.759 Y84.971 E109.32792
G1 X36.000 Y75.212 E110.29902
G1 X35.240 Y75.212 E110.35249
G1 X45.647 Y85.619 E111.38807
G1 X45.207 Y85.939 E111.42635
G1 X34.480 Y75.212 E112.49375
G1 X33.720 Y75.212 E112.54722
G1 X44.767 Y86.259 E113.64644
G1 X44.386 Y86.638 E113.68425
G1 X32.961 Y75.212 E114.82124
G1 X32.201 Y75.212 E114.87471
G1 X44.026 Y87.038 E116.05149
G1 X43.666 Y87.438 E116.08935
G1 X31.441 Y75.212 E117.30591
G1 X30.681 Y75.212 E117.35938
G1 X43.306 Y87.838 E118.61574
G1 X42.959 Y88.251 E118.65369
G1 X29.975 Y75.266 E119.94577
G1 X29.297 Y75.349 E119.99380
G1 X42.681 Y88.732 E121.32563
G1 X42.403 Y89.214 E121.36477
G1 X28.770 Y75.581 E122.72141
G1 X28.321 Y75.891 E122.75985
G1 X42.125 Y89.696 E124.13354
G1 X41.847 Y90.177 E124.17268
G1 X28.017 Y76.347 E125.54894
G1 X27.755 Y76.846 E125.58854
G1 X41.635 Y90.725 E126.96974
G1 X41.449 Y91.299 E127.01217
G1 X27.741 Y77.592 E128.37620
G1 X27.741 Y78.351 E128.42967
G1 X41.262 Y91.872 E129.77516
G1 X41.076 Y92.446 E129.81759
G1 X27.741 Y79.111 E131.14454
G1 X27.741 Y79.871 E131.19800
G1 X40.961 Y93.091 E132.51354
G1 X40.889 Y93.779 E132.56219
G1 X27.741 Y80.631 E133.87054
G1 X27.741 Y81.391 E133.92401
G1 X40.817 Y94.466 E135.22517
G1 X40.754 Y95.163 E135.27442
G1 X27.741 Y82.151 E136.56933
G1 X27.741 Y82.911 E136.62280
G1 X40.843 Y96.013 E137.92659
G1 X40.932 Y96.862 E137.98667
G1 X27.741 Y83.670 E139.29934
G1 X27.741 Y84.430 E139.35281
G1 X41.068 Y97.757 E140.67897
G1 X41.434 Y98.883 E140.76224
G1 X27.741 Y85.190 E142.12480
G1 X27.741 Y85.950 E142.17827
G1 X41.855 Y100.063 E143.58270
G1 X42.893 Y101.861 F7800.000
G1 X27.741 Y86.710 E145.09043 F1800.000
G1 X27.741 Y87.470 E145.14389
G1 X55.059 Y114.788 E147.86233
G1 X54.299 Y114.788 E147.91580
G1 X27.741 Y88.230 E150.55863
G1 X27.741 Y88.989 E150.61210
G1 X53.539 Y114.788 E153.17931
G1 X52.780 Y114.788 E153.23278
G1 X27.741 Y89.749 E155.72438
G1 X27.741 Y90.509 E155.77784
G1 X52.020 Y114.788 E158.19383
G1 X51.260 Y114.788 E158.24730
G1 X27.741 Y91.269 E160.58767
G1 X27.741 Y92.029 E160.64114
G1 X50.500 Y114.788 E162.90589
G1 X49.740 Y114.788 E162.95936
G1 X27.741 Y92.789 E165.14851
G1 X27.741 Y93.549 E165.20197
G1 X48.980 Y114.788 E167.31550
G1 X48.221 Y114.788 E167.36897
G1 X27.741 Y94.308 E169.40689
G1 X27.741 Y95.068 E169.46035
G1 X47.461 Y114.788 E171.42266
G1 X46.701 Y114.788 E171.47612
G1 X27.741 Y95.828 E173.36281
G1 X27.741 Y96.588 E173.41628
G1 X45.941 Y114.788 E175.22735
G1 X45.181 Y114.788 E175.28082
G1 X27.741 Y97.348 E177.01628
G1 X27.741 Y98.108 E177.06975
G1 X44.421 Y114.788 E178.72960
G1 X43.661 Y114.788 E178.78306
G1 X27.741 Y98.867 E180.36730
G1 X27.741 Y99.627 E180.42077
G1 X42.902 Y114.788 E181.92938
G1 X42.142 Y114.788 E181.98285
G1 X27.741 Y100.387 E183.41586
G1 X27.741 Y101.147 E183.46932
G1 X41.382 Y114.788 E184.82672
G1 X40.622 Y114.788 E184.88018
G1 X27.741 Y101.907 E186.16196
G1 X27.741 Y102.667 E186.21543
G1 X39.862 Y114.788 E187.42159
G1 X39.102 Y114.788 E187.47506
G1 X27.741 Y103.427 E188.60561
G1 X27.741 Y104.186 E188.65908
G1 X38.342 Y114.788 E189.71401
G1 X37.583 Y114.788 E189.76748
G1 X27.741 Y104.946 E190.74680
G1 X27.741 Y105.706 E190.80027
G1 X36.823 Y114.788 E191.70398
G1 X36.063 Y114.788 E191.75745
G1 X27.741 Y106.466 E192.58554
G1 X27.741 Y107.226 E192.63901
G1 X35.303 Y114.788 E193.39149
G1 X34.543 Y114.788 E193.44496
G1 X27.741 Y107.986 E194.12182
G1 X27.741 Y108.746 E194.17529
G1 X33.783 Y114.788 E194.77654
G1 X33.024 Y114.788 E194.83001
G1 X27.741 Y109.505 E195.35565
G1 X27.741 Y110.265 E195.40912
G1 X32.264 Y114.788 E195.85914
G1 X31.504 Y114.788 E195.91261
G1 X27.741 Y111.025 E196.28702
G1 X27.741 Y111.785 E196.34049
G1 X30.744 Y114.788 E196.63929
G1 X29.893 Y114.696 E196.69954
G1 X27.741 Y112.545 E196.91362
G1 X45.393 Y104.362 F7800.000
G1 X55.819 Y114.788 E197.95111 F1800.000
G1 X56.579 Y114.788 E198.00458
G1 X47.286 Y105.495 E198.92933
G1 X48.656 Y106.105 F7800.000
G1 X57.339 Y114.788 E199.79339 F1800.000
G1 X58.099 Y114.788 E199.84686
G1 X49.628 Y106.317 E200.68980
G1 X50.593 Y106.522 E200.75922
G1 X58.858 Y114.788 E201.58175
G1 X59.618 Y114.788 E201.63522
G1 X51.459 Y106.628 E202.44715
G1 X52.219 Y106.628 E202.50061
G1 X60.378 Y114.788 E203.31254
G1 X61.138 Y114.788 E203.36601
G1 X52.979 Y106.628 E204.17794
G1 X53.739 Y106.628 E204.23141
G1 X61.898 Y114.788 E205.04333
G1 X62.658 Y114.788 E205.09680
G1 X54.499 Y106.628 E205.90873
G1 X55.258 Y106.628 E205.96220
G1 X63.418 Y114.788 E206.77413
G1 X64.177 Y114.788 E206.82759
G1 X56.018 Y106.628 E207.63952
G1 X56.778 Y106.628 E207.69299
G1 X64.937 Y114.788 E208.50492
G1 X65.697 Y114.788 E208.55838
G1 X57.538 Y106.628 E209.37031
G1 X58.298 Y106.628 E209.42378
G1 X66.457 Y114.788 E210.23571
G1 X67.217 Y114.788 E210.28918
G1 X58.971 Y106.542 E211.10974
G1 X59.598 Y106.408 E211.15482
G1 X67.977 Y114.788 E211.98864
G1 X68.737 Y114.788 E212.04211
G1 X60.224 Y106.275 E212.88919
G1 X60.851 Y106.142 E212.93427
G1 X69.496 Y114.788 E213.79460
G1 X70.256 Y114.788 E213.84807
G1 X61.397 Y105.928 E214.72968
