; generated by Slic3r 1.1.7 on 2015-02-12 at 21:07:03

; perimeters extrusion width = 0.50mm
; infill extrusion width = 0.52mm
; solid infill extrusion width = 0.52mm
; top infill extrusion width = 0.52mm

G21 ; set units to millimeters
M107
M190 S50 ; wait for bed temperature to be reached
M104 S190 ; set temperature
G28 ; home all axes
G1 Z5 F5000 ; lift nozzle
M109 S190 ; wait for temperature to be reached
G90 ; use absolute coordinates
G92 E0
M82 ; use absolute distances for extrusion
G1 F1800.000 E-4.00000
G92 E0
G1 Z0.400 F6000.000
G1 X18.840 Y18.840 F6000.000
G1 E4.00000 F1800.000
G1 X21.385 Y16.294 E4.44040 F1080.000
G1 X23.721 Y14.073 E4.83463
G1 X25.343 Y12.990 E5.07330
G1 X26.857 Y12.362 E5.27382
G1 X28.770 Y11.981 E5.51242
G1 X30.414 Y11.981 E5.71353
G1 X31.945 Y12.286 E5.90454
G1 X32.328 Y12.362 E5.95229 F1080.000
G1 X33.843 Y12.990 E6.15294
G1 X36.103 Y14.597 E6.49212
G1 X175.926 Y154.535 E30.69235
G1 X177.010 Y156.157 E30.93098
G1 X177.638 Y157.672 E31.13162
G1 X178.019 Y159.586 E31.37037
G1 X178.019 Y161.230 E31.57149
G1 X177.637 Y163.144 E31.81020
G1 X177.010 Y164.657 E32.01061
G1 X175.403 Y166.918 E32.34993
G1 X166.279 Y175.927 E33.91847
G1 X164.657 Y177.010 E34.15714
G1 X163.144 Y177.637 E34.35755
G1 X161.230 Y178.019 E34.59626
G1 X159.586 Y178.019 E34.79738
G1 X157.672 Y177.638 E35.03613
G1 X156.157 Y177.010 E35.23677
G1 X153.897 Y175.403 E35.57596
G1 X14.074 Y35.465 E59.77619
G1 X12.990 Y33.843 E60.01480
G1 X12.362 Y32.328 E60.21546
G1 X11.981 Y30.414 E60.45421
G1 X11.981 Y28.770 E60.65532
G1 X12.362 Y26.857 E60.89393
G1 X12.990 Y25.343 E61.09445
G1 X14.597 Y23.082 E61.43376
G1 X18.787 Y18.893 E62.15859
G1 X19.360 Y19.360 F6000.000
G1 X21.905 Y16.814 E62.59900 F1080.000
G1 X24.129 Y14.685 E62.97561
G1 X25.752 Y13.602 E63.21429
G1 X27.001 Y13.084 E63.37974
G1 X28.914 Y12.703 E63.61834
G1 X30.270 Y12.703 E63.78429
G1 X31.802 Y13.008 E63.97530
G1 X32.184 Y13.084 E64.02305 F1080.000
G1 X33.435 Y13.602 E64.18861
G1 X35.583 Y15.117 E64.51019
G1 X175.314 Y154.943 E88.69285
G1 X176.398 Y156.565 E88.93148
G1 X176.916 Y157.816 E89.09704
G1 X177.297 Y159.730 E89.33579
G1 X177.297 Y161.086 E89.50174
G1 X176.916 Y163.000 E89.74043
G1 X176.398 Y164.248 E89.90580
G1 X174.883 Y166.397 E90.22750
G1 X165.871 Y175.315 E91.77846
G1 X164.248 Y176.398 E92.01713
G1 X163.000 Y176.916 E92.18250
G1 X161.086 Y177.297 E92.42119
G1 X159.730 Y177.297 E92.58713
G1 X157.816 Y176.916 E92.82589
G1 X156.565 Y176.398 E92.99144
G1 X154.417 Y174.883 E93.31303
G1 X14.685 Y35.057 E117.49570
G1 X13.602 Y33.435 E117.73431
G1 X13.084 Y32.184 E117.89988
G1 X12.703 Y30.270 E118.13864
G1 X12.703 Y28.914 E118.30458
G1 X13.084 Y27.001 E118.54318
G1 X13.602 Y25.752 E118.70864
G1 X15.117 Y23.603 E119.03034
G1 X19.307 Y19.413 E119.75517
G1 X19.880 Y19.880 F6000.000
G1 X22.426 Y17.334 E120.19557 F1080.000
G1 X24.538 Y15.297 E120.55459
G1 X26.160 Y14.213 E120.79326
G1 X27.145 Y13.805 E120.92365
G1 X29.058 Y13.424 E121.16225
G1 X30.127 Y13.424 E121.29303
G1 X31.658 Y13.729 E121.48404
G1 X32.041 Y13.805 E121.53179 F1080.000
G1 X33.026 Y14.214 E121.66227
G1 X35.063 Y15.637 E121.96625
G1 X174.703 Y155.352 E146.13135
G1 X175.786 Y156.974 E146.36998
G1 X176.195 Y157.959 E146.50045
G1 X176.576 Y159.873 E146.73920
G1 X176.576 Y160.942 E146.86998
G1 X176.195 Y162.856 E147.10865
G1 X175.787 Y163.840 E147.23898
G1 X174.363 Y165.877 E147.54307
G1 X165.462 Y174.703 E149.07645
G1 X163.840 Y175.787 E149.31512
G1 X162.856 Y176.195 E149.44544
G1 X160.942 Y176.576 E149.68411
G1 X159.873 Y176.576 E149.81489
G1 X157.959 Y176.195 E150.05365
G1 X156.974 Y175.786 E150.18412
G1 X154.937 Y174.363 E150.48811
G1 X15.297 Y34.648 E174.65322
G1 X14.214 Y33.026 E174.89183
G1 X13.805 Y32.041 E175.02231
G1 X13.424 Y30.127 E175.26106
G1 X13.424 Y29.058 E175.39184
G1 X13.805 Y27.145 E175.63044
G1 X14.213 Y26.160 E175.76084
G1 X15.637 Y24.123 E176.06493
G1 X19.827 Y19.933 E176.78976
G1 F1800.000 E172.78976
G92 E0
G1 X168.731 Y158.640 F6000.000
G1 E4.00000 F1800.000
G1 X163.428 Y153.336 E4.91750 F900.000
G1 X165.357 Y151.407 E5.25133
G1 X171.546 Y157.596 E6.32205
G1 X172.442 Y158.937 E6.51937
G1 X172.735 Y160.408 E6.70283
G1 X172.442 Y161.877 E6.88616
G1 X171.546 Y163.219 E7.08354
G1 X163.219 Y171.546 E8.52415
G1 X161.877 Y172.442 E8.72154
G1 X160.408 Y172.735 E8.90487
G1 X158.937 Y172.442 E9.08833
G1 X157.596 Y171.546 E9.28564
G1 X18.454 Y32.404 E33.35807
G1 X17.558 Y31.063 E33.55539
G1 X17.265 Y29.592 E33.73885
G1 X17.558 Y28.123 E33.92218
G1 X18.454 Y26.781 E34.11956
G1 X26.781 Y18.454 E35.56017
G1 X28.123 Y17.558 E35.75756
G1 X29.592 Y17.265 E35.94089
G1 X31.063 Y17.558 E36.12435
G1 X32.404 Y18.454 E36.32166
G1 X38.593 Y24.643 E37.39239
G1 X36.664 Y26.572 E37.72621
G1 X31.360 Y21.269 E38.64372
G1 X21.269 Y31.360 E40.38957
G1 X158.640 Y168.731 E64.15555
G1 X168.678 Y158.693 E65.89224
G1 X167.691 Y158.640 F6000.000
G1 X162.387 Y153.336 E66.80974 F675.000
G1 X165.357 Y150.366 E67.32355
G1 X172.117 Y157.127 E68.49313
G1 X173.135 Y158.650 E68.71720
G1 X173.485 Y160.408 E68.93647
G1 X173.135 Y162.164 E69.15561
G1 X172.117 Y163.688 E69.37974
G1 X163.688 Y172.117 E70.83809
G1 X162.164 Y173.135 E71.06222
G1 X160.408 Y173.485 E71.28136
G1 X158.650 Y173.135 E71.50063
G1 X157.127 Y172.117 E71.72470
G1 X17.883 Y32.873 E95.81486
G1 X16.865 Y31.350 E96.03893
G1 X16.515 Y29.592 E96.25820
G1 X16.865 Y27.836 E96.47734
G1 X17.883 Y26.312 E96.70146
G1 X26.312 Y17.883 E98.15982
G1 X27.836 Y16.865 E98.38395
G1 X29.592 Y16.515 E98.60308
G1 X31.350 Y16.865 E98.82236
G1 X32.873 Y17.883 E99.04643
G1 X39.634 Y24.643 E100.21601
G1 X36.664 Y27.613 E100.72982
G1 X31.360 Y22.309 E101.64732
G1 X22.309 Y31.360 E103.21320
G1 X158.640 Y167.691 E126.79920
G1 X167.638 Y158.693 E128.35590
G1 X168.044 Y158.286 F6000.000
G1 X171.204 Y158.008 F6000.000
G1 X165.343 Y152.147 E129.36994 F1080.000
G1 X172.128 Y159.988 F6000.000
G1 X164.815 Y152.675 E130.63511 F1080.000
G1 X164.287 Y153.203 E130.72643
G1 X172.092 Y161.007 E132.07672
G1 X171.858 Y161.828 E132.18119
G1 X169.063 Y159.034 E132.66470
G1 X168.535 Y159.562 E132.75602
G1 X171.435 Y162.461 E133.25772
G1 X170.964 Y163.047 E133.34958
G1 X168.007 Y160.089 E133.86120
G1 X167.479 Y160.617 E133.95252
G1 X170.436 Y163.574 E134.46414
G1 X169.909 Y164.102 E134.55546
G1 X166.951 Y161.145 E135.06708
G1 X166.424 Y161.673 E135.15840
G1 X169.381 Y164.630 E135.67002
G1 X168.853 Y165.158 E135.76134
G1 X165.896 Y162.201 E136.27296
G1 X165.368 Y162.729 E136.36428
G1 X168.325 Y165.686 E136.87590
G1 X167.797 Y166.214 E136.96722
G1 X164.840 Y163.256 E137.47884
G1 X164.312 Y163.784 E137.57016
G1 X167.269 Y166.742 E138.08178
G1 X166.742 Y167.269 E138.17310
G1 X163.784 Y164.312 E138.68472
G1 X163.256 Y164.840 E138.77604
G1 X166.214 Y167.797 E139.28766
G1 X165.686 Y168.325 E139.37898
G1 X162.729 Y165.368 E139.89060
G1 X162.201 Y165.896 E139.98192
G1 X165.158 Y168.853 E140.49354
G1 X164.630 Y169.381 E140.58486
G1 X161.673 Y166.424 E141.09648
G1 X161.145 Y166.951 E141.18780
G1 X164.102 Y169.909 E141.69942
G1 X163.574 Y170.436 E141.79074
G1 X160.617 Y167.479 E142.30236
G1 X160.089 Y168.007 E142.39368
G1 X163.047 Y170.964 E142.90530
G1 X162.461 Y171.435 E142.99716
G1 X159.562 Y168.535 E143.49886
G1 X159.034 Y169.063 E143.59018
G1 X161.828 Y171.858 E144.07369
G1 X161.007 Y172.092 E144.17816
G1 X17.908 Y28.993 E168.93529
G1 X17.872 Y30.012 E169.06013
G1 X159.988 Y172.128 E193.64703
G1 X158.008 Y171.204 F6000.000
G1 X18.796 Y31.992 E217.73168 F1080.000
G1 X20.937 Y30.966 F6000.000
G1 X18.142 Y28.172 E218.21519 F1080.000
G1 X18.565 Y27.539 E218.30830
G1 X21.465 Y30.438 E218.81000
G1 X21.993 Y29.911 E218.90132
G1 X19.036 Y26.953 E219.41294
G1 X19.564 Y26.426 E219.50426
G1 X22.521 Y29.383 E220.01588
G1 X23.049 Y28.855 E220.10720
G1 X20.091 Y25.898 E220.61882
G1 X20.619 Y25.370 E220.71014
G1 X23.576 Y28.327 E221.22176
G1 X24.104 Y27.799 E221.31308
G1 X21.147 Y24.842 E221.82470
G1 X21.675 Y24.314 E221.91602
G1 X24.632 Y27.271 E222.42764
G1 X25.160 Y26.744 E222.51896
G1 X22.203 Y23.786 E223.03058
G1 X22.731 Y23.258 E223.12190
G1 X25.688 Y26.216 E223.63352
G1 X26.216 Y25.688 E223.72484
G1 X23.258 Y22.731 E224.23646
G1 X23.786 Y22.203 E224.32778
G1 X26.744 Y25.160 E224.83940
G1 X27.271 Y24.632 E224.93072
G1 X24.314 Y21.675 E225.44234
G1 X24.842 Y21.147 E225.53366
G1 X27.799 Y24.104 E226.04528
G1 X28.327 Y23.576 E226.13660
G1 X25.370 Y20.619 E226.64822
G1 X25.898 Y20.091 E226.73954
G1 X28.855 Y23.049 E227.25116
G1 X29.383 Y22.521 E227.34248
G1 X26.426 Y19.564 E227.85410
G1 X26.953 Y19.036 E227.94542
G1 X29.911 Y21.993 E228.45704
G1 X30.438 Y21.465 E228.54836
G1 X27.539 Y18.565 E229.05005
G1 X28.172 Y18.142 E229.14317
G1 X30.966 Y20.937 E229.62668
G1 X31.992 Y18.796 F6000.000
G1 X37.853 Y24.657 E230.64073 F1080.000
G1 X37.325 Y25.185 E230.73205
G1 X30.012 Y17.872 E231.99722
G1 X28.993 Y17.908 E232.12206
G1 X36.797 Y25.713 E233.47234
M106 S129
G1 F1800.000 E229.47234
G92 E0
G1 Z0.800 F6000.000
G1 X168.186 Y158.640 F6000.000
G1 E4.00000 F1800.000
G1 X162.882 Y153.336 E4.62363 F3000.000
G1 X165.357 Y150.861 E4.91465
G1 X171.846 Y157.350 E5.67765
G1 X172.805 Y158.786 E5.82130
G1 X173.128 Y160.408 E5.95876
G1 X172.805 Y162.028 E6.09612
G1 X171.846 Y163.465 E6.23981
G1 X163.465 Y171.846 E7.22532
G1 X162.028 Y172.805 E7.36901
G1 X160.408 Y173.128 E7.50638
G1 X158.786 Y172.805 E7.64384
G1 X157.350 Y171.846 E7.78748
G1 X18.154 Y32.650 E24.15581
G1 X17.195 Y31.214 E24.29946
G1 X16.872 Y29.592 E24.43692
G1 X17.195 Y27.972 E24.57428
G1 X18.154 Y26.535 E24.71797
G1 X26.535 Y18.154 E25.70348
G1 X27.972 Y17.195 E25.84717
G1 X29.592 Y16.872 E25.98454
G1 X31.214 Y17.195 E26.12200
G1 X32.650 Y18.154 E26.26564
G1 X39.139 Y24.643 E27.02864
G1 X36.664 Y27.118 E27.31967
G1 X31.360 Y21.814 E27.94329
G1 X21.814 Y31.360 E29.06582
G1 X158.640 Y168.186 E45.15541
G1 X168.133 Y158.693 E46.27171
G1 X167.478 Y158.640 F6000.000
G1 X162.175 Y153.336 E46.89533 F2250.000
G1 X165.357 Y150.154 E47.26951
G1 X172.234 Y157.031 E48.07818
G1 X173.276 Y158.591 E48.23418
G1 X173.638 Y160.408 E48.38819
G1 X173.276 Y162.223 E48.54210
G1 X172.234 Y163.784 E48.69814
G1 X163.784 Y172.234 E49.69185
G1 X162.223 Y173.276 E49.84790
G1 X160.408 Y173.638 E50.00180
G1 X158.591 Y173.276 E50.15581
G1 X157.031 Y172.234 E50.31181
G1 X17.766 Y32.969 E66.68833
G1 X16.724 Y31.409 E66.84434
G1 X16.362 Y29.592 E66.99835
G1 X16.724 Y27.777 E67.15225
G1 X17.766 Y26.216 E67.30830
G1 X26.216 Y17.766 E68.30201
G1 X27.777 Y16.724 E68.45805
G1 X29.592 Y16.362 E68.61196
G1 X31.409 Y16.724 E68.76597
G1 X32.969 Y17.766 E68.92197
G1 X39.846 Y24.643 E69.73064
G1 X36.664 Y27.825 E70.10481
G1 X31.360 Y22.522 E70.72844
G1 X22.522 Y31.360 E71.76782
G1 X158.640 Y167.478 E87.77426
G1 X167.425 Y158.693 E88.80741
G1 X167.832 Y158.286 F6000.000
G1 X168.372 Y158.335 F6000.000
G1 X170.342 Y156.365 E89.04818 F3600.000
G1 X169.974 Y155.997 E89.09309
G1 X168.004 Y157.968 E89.33386
G1 X167.637 Y157.600 E89.37877
G1 X169.607 Y155.630 E89.61954
G1 X169.239 Y155.262 E89.66445
G1 X167.269 Y157.233 E89.90523
G1 X166.902 Y156.865 E89.95014
G1 X168.872 Y154.895 E90.19091
G1 X168.504 Y154.528 E90.23582
G1 X166.534 Y156.498 E90.47659
G1 X166.167 Y156.130 E90.52150
G1 X168.137 Y154.160 E90.76227
G1 X167.769 Y153.793 E90.80718
G1 X165.799 Y155.763 E91.04796
G1 X165.432 Y155.395 E91.09287
G1 X167.402 Y153.425 E91.33364
G1 X167.034 Y153.058 E91.37855
G1 X165.064 Y155.028 E91.61932
G1 X164.697 Y154.660 E91.66423
G1 X166.667 Y152.690 E91.90501
G1 X166.299 Y152.323 E91.94992
G1 X164.329 Y154.293 E92.19069
G1 X163.962 Y153.925 E92.23560
G1 X165.932 Y151.955 E92.47637
G1 X165.564 Y151.588 E92.52128
G1 X163.594 Y153.558 E92.76205
G1 X171.633 Y163.159 F6000.000
G1 X163.159 Y171.633 E93.79771 F3600.000
G1 X161.500 Y172.557 F6000.000
G1 X172.557 Y161.500 E95.14901 F3600.000
G1 X172.740 Y160.582 E95.22989
G1 X160.582 Y172.740 E96.71573
G1 X159.911 Y172.676 E96.77396
G1 X172.676 Y159.911 E98.33393
G1 X172.554 Y159.298 E98.38793
G1 X159.298 Y172.554 E100.00788
G1 X158.752 Y172.365 E100.05783
G1 X172.365 Y158.752 E101.72152
G1 X172.071 Y158.311 E101.76731
G1 X158.311 Y172.071 E103.44886
G1 X157.870 Y171.776 E103.49465
G1 X171.776 Y157.870 E105.19407
G1 X171.444 Y157.467 E105.23919
G1 X157.467 Y171.444 E106.94730
G1 X157.100 Y171.077 E106.99221
G1 X171.077 Y157.100 E108.70032
G1 X170.709 Y156.732 E108.74523
G1 X156.732 Y170.709 E110.45334
G1 X156.365 Y170.342 E110.49825
G1 X158.335 Y168.372 E110.73902
G1 X157.968 Y168.004 E110.78394
G1 X155.997 Y169.974 E111.02471
G1 X155.630 Y169.607 E111.06962
G1 X157.600 Y167.637 E111.31039
G1 X157.233 Y167.269 E111.35530
G1 X155.262 Y169.239 E111.59607
G1 X154.895 Y168.872 E111.64098
G1 X156.865 Y166.902 E111.88176
G1 X156.498 Y166.534 E111.92667
G1 X154.528 Y168.504 E112.16744
G1 X154.160 Y168.137 E112.21235
G1 X156.130 Y166.167 E112.45312
G1 X155.763 Y165.799 E112.49803
G1 X153.793 Y167.769 E112.73880
G1 X153.425 Y167.402 E112.78372
G1 X155.395 Y165.432 E113.02449
G1 X155.028 Y165.064 E113.06940
G1 X153.058 Y167.034 E113.31017
G1 X152.690 Y166.667 E113.35508
G1 X154.660 Y164.697 E113.59585
G1 X154.293 Y164.329 E113.64076
G1 X152.323 Y166.299 E113.88154
G1 X151.955 Y165.932 E113.92645
G1 X153.925 Y163.962 E114.16722
G1 X153.558 Y163.594 E114.21213
G1 X151.588 Y165.564 E114.45290
G1 X151.220 Y165.197 E114.49781
G1 X153.190 Y163.227 E114.73859
G1 X152.823 Y162.859 E114.78350
G1 X150.853 Y164.829 E115.02427
G1 X150.485 Y164.462 E115.06918
G1 X152.455 Y162.492 E115.30995
G1 X152.088 Y162.124 E115.35486
G1 X150.118 Y164.094 E115.59563
G1 X149.750 Y163.727 E115.64055
G1 X151.720 Y161.757 E115.88132
G1 X151.353 Y161.389 E115.92623
G1 X149.383 Y163.359 E116.16700
G1 X149.015 Y162.992 E116.21191
G1 X150.985 Y161.022 E116.45268
G1 X150.618 Y160.654 E116.49759
G1 X148.648 Y162.624 E116.73837
G1 X148.280 Y162.257 E116.78328
G1 X150.250 Y160.287 E117.02405
G1 X149.883 Y159.919 E117.06896
G1 X147.913 Y161.889 E117.30973
G1 X147.545 Y161.522 E117.35464
G1 X149.515 Y159.552 E117.59541
G1 X149.148 Y159.184 E117.64033
G1 X147.178 Y161.155 E117.88110
G1 X146.810 Y160.787 E117.92601
G1 X148.780 Y158.817 E118.16678
G1 X148.413 Y158.449 E118.21169
G1 X146.443 Y160.420 E118.45246
G1 X146.075 Y160.052 E118.49738
G1 X148.045 Y158.082 E118.73815
G1 X147.678 Y157.714 E118.78306
G1 X145.708 Y159.685 E119.02383
G1 X145.340 Y159.317 E119.06874
G1 X147.310 Y157.347 E119.30951
G1 X146.943 Y156.979 E119.35442
G1 X144.973 Y158.950 E119.59520
G1 X144.605 Y158.582 E119.64011
G1 X146.575 Y156.612 E119.88088
G1 X146.208 Y156.244 E119.92579
G1 X144.238 Y158.215 E120.16656
G1 X143.870 Y157.847 E120.21147
G1 X145.840 Y155.877 E120.45224
G1 X145.473 Y155.509 E120.49716
G1 X143.503 Y157.480 E120.73793
G1 X143.135 Y157.112 E120.78284
G1 X145.105 Y155.142 E121.02361
G1 X144.738 Y154.774 E121.06852
G1 X142.768 Y156.745 E121.30929
G1 X142.400 Y156.377 E121.35420
G1 X144.370 Y154.407 E121.59498
G1 X144.003 Y154.039 E121.63989
G1 X142.033 Y156.010 E121.88066
G1 X141.665 Y155.642 E121.92557
G1 X143.635 Y153.672 E122.16634
G1 X143.268 Y153.304 E122.21125
G1 X141.298 Y155.275 E122.45203
G1 X140.930 Y154.907 E122.49694
G1 X142.900 Y152.937 E122.73771
G1 X142.533 Y152.570 E122.78262
G1 X140.563 Y154.540 E123.02339
G1 X140.195 Y154.172 E123.06830
G1 X142.165 Y152.202 E123.30907
G1 X141.798 Y151.835 E123.35399
G1 X139.828 Y153.805 E123.59476
G1 X139.460 Y153.437 E123.63967
G1 X141.431 Y151.467 E123.88044
G1 X141.063 Y151.100 E123.92535
G1 X139.093 Y153.070 E124.16612
G1 X138.725 Y152.702 E124.21103
G1 X140.696 Y150.732 E124.45181
G1 X140.328 Y150.365 E124.49672
G1 X138.358 Y152.335 E124.73749
G1 X137.990 Y151.967 E124.78240
G1 X139.961 Y149.997 E125.02317
G1 X139.593 Y149.630 E125.06808
G1 X137.623 Y151.600 E125.30885
G1 X137.255 Y151.232 E125.35377
G1 X139.226 Y149.262 E125.59454
G1 X138.858 Y148.895 E125.63945
G1 X136.888 Y150.865 E125.88022
G1 X136.520 Y150.497 E125.92513
G1 X138.491 Y148.527 E126.16590
G1 X138.123 Y148.160 E126.21081
G1 X136.153 Y150.130 E126.45159
G1 X135.785 Y149.762 E126.49650
G1 X137.756 Y147.792 E126.73727
G1 X137.388 Y147.425 E126.78218
G1 X135.418 Y149.395 E127.02295
