; generated by Slic3r 1.2.0 on 2014-08-24 at 16:12:34

; external perimeters extrusion width = 0.40mm
; perimeters extrusion width = 0.67mm
; infill extrusion width = 0.67mm
; solid infill extrusion width = 0.67mm
; top infill extrusion width = 0.67mm

G21 ; set units to millimeters
M107
M190 S70 ; wait for bed temperature to be reached
M104 S230 ; set temperature
G28 ; home all axes
G1 Z5 F5000 ; lift nozzle
M109 S230 ; wait for temperature to be reached
G90 ; use absolute coordinates
G92 E0
M82 ; use absolute distances for extrusion
G1 Z0.200 F3960.000
G1 F3000.000 E-1.00000
G92 E0
G1 X-38.595 Y-20.221 F3960.000
G1 E1.05000 F3000.000
G1 X38.681 Y-20.221 E2.12860 F792.000
G1 X51.110 Y-20.096 E2.30210
G1 X53.671 Y-19.672 E2.33833
G1 X55.983 Y-18.493 E2.37455
G1 X57.830 Y-16.670 E2.41078
G1 X59.038 Y-14.372 E2.44701
G1 X59.496 Y-11.625 E2.48589
G1 X59.496 Y-9.875 E2.51031
G1 X59.099 Y-7.310 E2.54654
G1 X58.369 Y-5.654 E2.57180
G1 X45.940 Y15.971 E2.91995
G1 X44.317 Y17.997 E2.95618
G1 X42.157 Y19.436 E2.99240
G1 X38.595 Y20.221 E3.04331
G1 X-38.595 Y20.221 E4.12072
G1 X-41.160 Y19.824 E4.15695
G1 X-43.485 Y18.668 E4.19318
G1 X-45.940 Y15.971 E4.24408
G1 X-58.369 Y-5.654 E4.59222
G1 X-59.303 Y-8.075 E4.62845
G1 X-59.496 Y-9.875 E4.65371
G1 X-59.496 Y-11.625 E4.67814
G1 X-59.099 Y-14.190 E4.71437
G1 X-57.943 Y-16.514 E4.75060
G1 X-56.138 Y-18.379 E4.78682
G1 X-53.853 Y-19.610 E4.82305
G1 X-51.110 Y-20.096 E4.86193
G1 X-38.655 Y-20.221 E5.03578
G1 X-38.595 Y-20.064 F3960.000
G1 X38.679 Y-20.064 E6.11436 F792.000
G1 X51.109 Y-19.939 E6.28785
G1 X53.645 Y-19.516 E6.32374
G1 X55.930 Y-18.338 E6.35963
G1 X57.747 Y-16.518 E6.39552
G1 X58.920 Y-14.230 E6.43141
G1 X59.339 Y-11.625 E6.46824
G1 X59.339 Y-9.875 E6.49267
G1 X58.942 Y-7.335 E6.52855
G1 X58.233 Y-5.732 E6.55301
G1 X45.804 Y15.893 E6.90116
G1 X44.193 Y17.897 E6.93704
G1 X42.047 Y19.314 E6.97293
G1 X38.595 Y20.064 E7.02224
G1 X-38.595 Y20.064 E8.09965
G1 X-41.136 Y19.667 E8.13554
G1 X-43.433 Y18.512 E8.17143
G1 X-45.804 Y15.893 E8.22073
G1 X-58.233 Y-5.732 E8.56887
G1 X-59.154 Y-8.132 E8.60476
G1 X-59.339 Y-9.875 E8.62922
G1 X-59.339 Y-11.625 E8.65365
G1 X-58.942 Y-14.165 E8.68953
G1 X-57.787 Y-16.463 E8.72542
G1 X-55.985 Y-18.297 E8.76131
G1 X-53.709 Y-19.494 E8.79720
G1 X-51.109 Y-19.939 E8.83403
G1 X-38.655 Y-20.064 E9.00786
G1 X-38.595 Y-19.907 F3960.000
G1 X38.677 Y-19.907 E10.08641 F792.000
G1 X51.107 Y-19.782 E10.25991
G1 X53.618 Y-19.359 E10.29546
G1 X55.877 Y-18.182 E10.33100
G1 X57.663 Y-16.366 E10.36655
G1 X58.801 Y-14.088 E10.40209
G1 X59.182 Y-11.625 E10.43689
G1 X59.182 Y-9.875 E10.46131
G1 X58.784 Y-7.360 E10.49686
G1 X58.097 Y-5.810 E10.52052
G1 X45.668 Y15.815 E10.86866
G1 X44.069 Y17.798 E10.90421
G1 X41.938 Y19.191 E10.93975
G1 X38.595 Y19.907 E10.98746
G1 X-38.595 Y19.907 E12.06487
G1 X-41.111 Y19.510 E12.10042
G1 X-43.381 Y18.356 E12.13597
G1 X-45.668 Y15.815 E12.18367
G1 X-58.097 Y-5.810 E12.53182
G1 X-59.006 Y-8.189 E12.56736
G1 X-59.182 Y-9.875 E12.59102
G1 X-59.182 Y-11.625 E12.61545
G1 X-58.784 Y-14.140 E12.65099
G1 X-57.631 Y-16.411 E12.68654
G1 X-55.833 Y-18.215 E12.72209
G1 X-53.566 Y-19.376 E12.75763
G1 X-51.107 Y-19.782 E12.79242
G1 X-38.655 Y-19.906 E12.96623
G1 F3000.000 E11.96623
G92 E0
G1 X-6.433 Y5.321 F3960.000
G1 E1.05000 F3000.000
G1 X-13.071 Y5.321 E1.14265 F792.000
G1 X-13.071 Y-5.321 E1.29120
G1 X13.071 Y-5.321 E1.65609
G1 X13.071 Y5.321 E1.80463
G1 X6.433 Y5.321 E1.89728
G1 X6.433 Y8.821 E1.94613
G1 X-6.433 Y8.821 E2.12572
G1 X-6.433 Y5.381 E2.17374
G1 X-6.276 Y5.164 F3960.000
G1 X-12.914 Y5.164 E2.26639 F792.000
G1 X-12.914 Y-5.164 E2.41055
G1 X12.914 Y-5.164 E2.77105
G1 X12.914 Y5.164 E2.91521
G1 X6.276 Y5.164 E3.00786
G1 X6.276 Y8.664 E3.05672
G1 X-6.276 Y8.664 E3.23192
G1 X-6.276 Y5.224 E3.27994
G1 X-6.119 Y5.007 F3960.000
G1 X-12.757 Y5.007 E3.37259 F792.000
G1 X-12.757 Y-5.007 E3.51236
G1 X12.757 Y-5.007 E3.86848
G1 X12.757 Y5.007 E4.00826
G1 X6.119 Y5.007 E4.10091
G1 X6.119 Y8.507 E4.14976
G1 X-6.119 Y8.507 E4.32058
G1 X-6.119 Y5.067 E4.36859
G1 X-5.962 Y4.850 F3960.000
G1 X-12.600 Y4.850 E4.46124 F495.000
G1 X-12.600 Y-4.850 E4.59664
G1 X12.600 Y-4.850 E4.94837
G1 X12.600 Y4.850 E5.08376
G1 X5.962 Y4.850 E5.17641
G1 X5.962 Y8.350 E5.22526
G1 X-5.962 Y8.350 E5.39170
G1 X-5.962 Y4.910 E5.43971
G1 X-6.308 Y5.050 F3960.000
G1 X-14.929 Y5.321 F3960.000
G1 X-14.929 Y-5.321 E5.58826 F792.000
G1 X-38.024 Y-5.321 E5.91062
G1 X-38.024 Y-10.446 E5.98215
G1 X-50.454 Y-10.446 E6.15564
G1 X-50.454 Y-11.054 E6.16412
G1 X-38.024 Y-11.054 E6.33761
G1 X-38.024 Y-11.179 E6.33935
G1 X38.024 Y-11.179 E7.40082
G1 X38.024 Y-11.054 E7.40256
G1 X50.454 Y-11.054 E7.57605
G1 X50.454 Y-10.446 E7.58453
G1 X38.024 Y-10.446 E7.75802
G1 X38.024 Y-5.321 E7.82955
G1 X14.929 Y-5.321 E8.15191
G1 X14.929 Y5.321 E8.30046
G1 X38.024 Y5.321 E8.62282
G1 X38.024 Y11.179 E8.70458
G1 X-38.024 Y11.179 E9.76604
G1 X-38.024 Y5.321 E9.84780
G1 X-14.989 Y5.321 E10.16932
G1 X-15.086 Y5.164 F3960.000
G1 X-15.086 Y-5.164 E10.31348 F792.000
G1 X-38.181 Y-5.164 E10.63584
G1 X-38.181 Y-10.289 E10.70738
G1 X-50.611 Y-10.289 E10.88087
G1 X-50.611 Y-11.211 E10.89373
G1 X-38.181 Y-11.211 E11.06722
G1 X-38.181 Y-11.336 E11.06896
G1 X38.181 Y-11.336 E12.13481
G1 X38.181 Y-11.211 E12.13656
G1 X50.611 Y-11.211 E12.31005
G1 X50.611 Y-10.289 E12.32291
G1 X38.181 Y-10.289 E12.49640
G1 X38.181 Y-5.164 E12.56793
G1 X15.086 Y-5.164 E12.89029
G1 X15.086 Y5.164 E13.03445
G1 X38.181 Y5.164 E13.35681
G1 X38.181 Y11.336 E13.44296
G1 X-38.181 Y11.336 E14.50881
G1 X-38.181 Y5.164 E14.59495
G1 X-15.146 Y5.164 E14.91647
G1 X-15.243 Y5.007 F3960.000
G1 X-15.243 Y-5.007 E15.05625 F792.000
G1 X-38.338 Y-5.007 E15.37861
G1 X-38.338 Y-10.132 E15.45014
G1 X-50.768 Y-10.132 E15.62363
G1 X-50.768 Y-11.368 E15.64088
G1 X-38.338 Y-11.368 E15.81437
G1 X-38.338 Y-11.493 E15.81611
G1 X38.338 Y-11.493 E16.88635
G1 X38.338 Y-11.368 E16.88809
G1 X50.768 Y-11.368 E17.06158
G1 X50.768 Y-10.132 E17.07883
G1 X38.338 Y-10.132 E17.25232
G1 X38.338 Y-5.007 E17.32385
G1 X15.243 Y-5.007 E17.64621
G1 X15.243 Y5.007 E17.78599
G1 X38.338 Y5.007 E18.10835
G1 X38.338 Y11.493 E18.19888
G1 X-38.338 Y11.493 E19.26911
G1 X-38.338 Y5.007 E19.35964
G1 X-15.303 Y5.007 E19.68116
G1 X-15.400 Y4.850 F3960.000
G1 X-15.400 Y-4.850 E19.81655 F495.000
G1 X-38.495 Y-4.850 E20.13891
G1 X-38.495 Y-9.975 E20.21045
G1 X-50.925 Y-9.975 E20.38393
G1 X-50.925 Y-11.525 E20.40557
G1 X-38.495 Y-11.525 E20.57906
G1 X-38.495 Y-11.650 E20.58080
G1 X38.495 Y-11.650 E21.65542
G1 X38.495 Y-11.525 E21.65717
G1 X50.925 Y-11.525 E21.83066
G1 X50.925 Y-9.975 E21.85229
G1 X38.495 Y-9.975 E22.02578
G1 X38.495 Y-4.850 E22.09731
G1 X15.400 Y-4.850 E22.41967
G1 X15.400 Y4.850 E22.55506
G1 X38.495 Y4.850 E22.87742
G1 X38.495 Y11.650 E22.97234
G1 X-38.495 Y11.650 E24.04696
G1 X-38.495 Y4.850 E24.14187
G1 X-15.460 Y4.850 E24.46339
G1 X-15.000 Y4.850 F3960.000
G1 X-13.165 Y5.134 F3960.000
G1 X-14.835 Y3.465 E24.49635 F792.000
G1 X-14.835 Y3.242 E24.49945
G1 X-13.165 Y4.912 E24.53242
G1 X-13.165 Y4.690 E24.53552
G1 X-14.835 Y3.020 E24.56848
G1 X-14.835 Y2.798 E24.57158
G1 X-13.165 Y4.467 E24.60454
G1 X-13.165 Y4.245 E24.60764
G1 X-14.835 Y2.575 E24.64061
G1 X-14.835 Y2.353 E24.64371
G1 X-13.165 Y4.023 E24.67667
G1 X-13.165 Y3.801 E24.67977
G1 X-14.835 Y2.131 E24.71273
G1 X-14.835 Y1.909 E24.71583
G1 X-13.165 Y3.578 E24.74880
G1 X-13.165 Y3.356 E24.75190
G1 X-14.835 Y1.686 E24.78486
G1 X-14.835 Y1.464 E24.78796
G1 X-13.165 Y3.134 E24.82092
G1 X-13.165 Y2.911 E24.82402
G1 X-14.835 Y1.242 E24.85699
G1 X-14.835 Y1.019 E24.86009
G1 X-13.165 Y2.689 E24.89305
G1 X-13.165 Y2.467 E24.89615
G1 X-14.835 Y0.797 E24.92911
G1 X-14.835 Y0.575 E24.93221
G1 X-13.165 Y2.245 E24.96518
G1 X-13.165 Y2.022 E24.96828
G1 X-14.835 Y0.353 E25.00124
G1 X-14.835 Y0.130 E25.00434
G1 X-13.165 Y1.800 E25.03730
G1 X-13.165 Y1.578 E25.04040
G1 X-14.835 Y-0.092 E25.07337
G1 X-14.835 Y-0.314 E25.07647
G1 X-13.165 Y1.355 E25.10943
G1 X-13.165 Y1.133 E25.11253
G1 X-14.835 Y-0.537 E25.14549
G1 X-14.835 Y-0.759 E25.14859
G1 X-13.165 Y0.911 E25.18156
G1 X-13.165 Y0.689 E25.18466
G1 X-14.835 Y-0.981 E25.21762
G1 X-14.835 Y-1.204 E25.22072
G1 X-13.165 Y0.466 E25.25368
G1 X-13.165 Y0.244 E25.25678
G1 X-14.835 Y-1.426 E25.28974
G1 X-14.835 Y-1.648 E25.29285
G1 X-13.165 Y0.022 E25.32581
G1 X-13.165 Y-0.201 E25.32891
G1 X-14.835 Y-1.870 E25.36187
G1 X-14.835 Y-2.093 E25.36497
G1 X-13.165 Y-0.423 E25.39793
G1 X-13.165 Y-0.645 E25.40104
G1 X-14.835 Y-2.315 E25.43400
G1 X-14.835 Y-2.537 E25.43710
G1 X-13.165 Y-0.867 E25.47006
G1 X-13.165 Y-1.090 E25.47316
G1 X-14.835 Y-2.760 E25.50612
G1 X-14.835 Y-2.982 E25.50923
G1 X-13.165 Y-1.312 E25.54219
G1 X-13.165 Y-1.534 E25.54529
G1 X-14.835 Y-3.204 E25.57825
G1 X-14.835 Y-3.426 E25.58135
G1 X-13.165 Y-1.757 E25.61431
G1 X-13.165 Y-1.979 E25.61742
G1 X-14.835 Y-3.649 E25.65038
G1 X-14.835 Y-3.871 E25.65348
G1 X-13.165 Y-2.201 E25.68644
G1 X-13.165 Y-2.423 E25.68954
G1 X-14.835 Y-4.093 E25.72250
G1 X-14.835 Y-4.316 E25.72561
G1 X-13.165 Y-2.646 E25.75857
G1 X-13.165 Y-2.868 E25.76167
G1 X-14.835 Y-4.538 E25.79463
G1 X-14.835 Y-4.760 E25.79773
G1 X-13.165 Y-3.090 E25.83069
G1 X-13.165 Y-3.313 E25.83380
G1 X-14.835 Y-4.982 E25.86676
G1 X-14.835 Y-5.205 E25.86986
G1 X-13.165 Y-3.535 E25.90282
G1 F3000.000 E24.90282
G92 E0
G1 X-10.217 Y5.415 F3960.000
G1 E1.05000 F3000.000
G1 X-4.547 Y11.085 E1.16192 F792.000
G1 X-4.769 Y11.085 E1.16502
G1 X-10.439 Y5.415 E1.27694
G1 X-10.661 Y5.415 E1.28004
G1 X-4.992 Y11.085 E1.39196
G1 X-5.214 Y11.085 E1.39506
G1 X-10.884 Y5.415 E1.50698
G1 X-11.106 Y5.415 E1.51008
G1 X-5.436 Y11.085 E1.62200
G1 X-5.659 Y11.085 E1.62510
G1 X-11.328 Y5.415 E1.73702
G1 X-11.551 Y5.415 E1.74012
G1 X-5.881 Y11.085 E1.85204
G1 X-6.103 Y11.085 E1.85514
G1 X-11.773 Y5.415 E1.96706
G1 X-11.995 Y5.415 E1.97016
G1 X-6.325 Y11.085 E2.08208
G1 X-6.548 Y11.085 E2.08518
G1 X-12.217 Y5.415 E2.19710
G1 X-12.440 Y5.415 E2.20020
G1 X-6.770 Y11.085 E2.31212
G1 X-6.992 Y11.085 E2.31522
G1 X-12.662 Y5.415 E2.42714
G1 X-12.884 Y5.415 E2.43024
G1 X-7.215 Y11.085 E2.54216
G1 X-7.437 Y11.085 E2.54526
G1 X-14.835 Y3.687 E2.69130
G1 X-14.835 Y3.909 E2.69440
G1 X-7.659 Y11.085 E2.83604
G1 X-7.881 Y11.085 E2.83915
G1 X-14.835 Y4.131 E2.97640
G1 X-14.835 Y4.354 E2.97951
G1 X-8.104 Y11.085 E3.11237
G1 X-8.326 Y11.085 E3.11548
G1 X-14.835 Y4.576 E3.24396
G1 X-14.835 Y4.798 E3.24706
G1 X-8.548 Y11.085 E3.37115
G1 X-8.771 Y11.085 E3.37426
G1 X-14.835 Y5.021 E3.49396
G1 X-14.835 Y5.243 E3.49706
G1 X-8.993 Y11.085 E3.61238
G1 X-9.215 Y11.085 E3.61548
G1 X-14.885 Y5.415 E3.72740
G1 X-15.107 Y5.415 E3.73050
G1 X-9.437 Y11.085 E3.84242
G1 X-9.660 Y11.085 E3.84552
G1 X-15.330 Y5.415 E3.95744
G1 X-15.552 Y5.415 E3.96054
G1 X-9.882 Y11.085 E4.07246
G1 X-10.104 Y11.085 E4.07557
G1 X-15.774 Y5.415 E4.18748
G1 X-15.996 Y5.415 E4.19059
G1 X-10.327 Y11.085 E4.30250
G1 X-10.549 Y11.085 E4.30561
G1 X-16.219 Y5.415 E4.41752
G1 X-16.441 Y5.415 E4.42063
G1 X-10.771 Y11.085 E4.53254
G1 X-10.993 Y11.085 E4.53565
G1 X-16.663 Y5.415 E4.64756
G1 X-16.886 Y5.415 E4.65067
G1 X-11.216 Y11.085 E4.76258
G1 X-11.438 Y11.085 E4.76569
G1 X-17.108 Y5.415 E4.87760
G1 X-17.330 Y5.415 E4.88071
G1 X-11.660 Y11.085 E4.99262
G1 X-11.883 Y11.085 E4.99573
G1 X-17.552 Y5.415 E5.10765
G1 X-17.775 Y5.415 E5.11075
G1 X-12.105 Y11.085 E5.22267
G1 X-12.327 Y11.085 E5.22577
G1 X-17.997 Y5.415 E5.33769
G1 X-18.219 Y5.415 E5.34079
G1 X-12.549 Y11.085 E5.45271
G1 X-12.772 Y11.085 E5.45581
G1 X-18.442 Y5.415 E5.56773
G1 X-18.664 Y5.415 E5.57083
G1 X-12.994 Y11.085 E5.68275
G1 X-13.216 Y11.085 E5.68585
G1 X-18.886 Y5.415 E5.79777
G1 X-19.108 Y5.415 E5.80087
G1 X-13.439 Y11.085 E5.91279
G1 X-13.661 Y11.085 E5.91589
G1 X-19.331 Y5.415 E6.02781
G1 X-19.553 Y5.415 E6.03091
G1 X-13.883 Y11.085 E6.14283
G1 X-14.105 Y11.085 E6.14593
G1 X-19.775 Y5.415 E6.25785
G1 X-19.998 Y5.415 E6.26095
G1 X-14.328 Y11.085 E6.37287
G1 X-14.550 Y11.085 E6.37597
G1 X-20.220 Y5.415 E6.48789
G1 X-20.442 Y5.415 E6.49099
G1 X-14.772 Y11.085 E6.60291
G1 X-14.995 Y11.085 E6.60601
G1 X-20.664 Y5.415 E6.71793
G1 X-20.887 Y5.415 E6.72103
G1 X-15.217 Y11.085 E6.83295
G1 X-15.439 Y11.085 E6.83605
G1 X-21.109 Y5.415 E6.94797
G1 X-21.331 Y5.415 E6.95107
G1 X-15.662 Y11.085 E7.06299
G1 X-15.884 Y11.085 E7.06609
G1 X-21.554 Y5.415 E7.17801
G1 X-21.776 Y5.415 E7.18111
G1 X-16.106 Y11.085 E7.29303
G1 X-16.328 Y11.085 E7.29613
G1 X-21.998 Y5.415 E7.40805
G1 X-22.220 Y5.415 E7.41115
G1 X-16.551 Y11.085 E7.52307
G1 X-16.773 Y11.085 E7.52617
G1 X-22.443 Y5.415 E7.63809
G1 X-22.665 Y5.415 E7.64119
G1 X-16.995 Y11.085 E7.75311
G1 X-17.218 Y11.085 E7.75621
G1 X-22.887 Y5.415 E7.86813
G1 X-23.110 Y5.415 E7.87124
G1 X-17.440 Y11.085 E7.98315
G1 X-17.662 Y11.085 E7.98626
G1 X-23.332 Y5.415 E8.09817
G1 X-23.554 Y5.415 E8.10128
G1 X-17.884 Y11.085 E8.21319
G1 X-18.107 Y11.085 E8.21630
G1 X-23.776 Y5.415 E8.32821
G1 X-23.999 Y5.415 E8.33132
G1 X-18.329 Y11.085 E8.44323
G1 X-18.551 Y11.085 E8.44634
G1 X-24.221 Y5.415 E8.55825
G1 X-24.443 Y5.415 E8.56136
G1 X-18.774 Y11.085 E8.67327
G1 X-18.996 Y11.085 E8.67638
G1 X-24.666 Y5.415 E8.78830
G1 X-24.888 Y5.415 E8.79140
G1 X-19.218 Y11.085 E8.90332
G1 X-19.440 Y11.085 E8.90642
G1 X-25.110 Y5.415 E9.01834
G1 X-25.333 Y5.415 E9.02144
G1 X-19.663 Y11.085 E9.13336
G1 X-19.885 Y11.085 E9.13646
G1 X-25.555 Y5.415 E9.24838
G1 X-25.777 Y5.415 E9.25148
G1 X-20.107 Y11.085 E9.36340
G1 X-20.330 Y11.085 E9.36650
G1 X-25.999 Y5.415 E9.47842
G1 X-26.222 Y5.415 E9.48152
G1 X-20.552 Y11.085 E9.59344
G1 X-20.774 Y11.085 E9.59654
G1 X-26.444 Y5.415 E9.70846
G1 X-26.666 Y5.415 E9.71156
G1 X-20.996 Y11.085 E9.82348
G1 X-21.219 Y11.085 E9.82658
G1 X-26.889 Y5.415 E9.93850
G1 X-27.111 Y5.415 E9.94160
G1 X-21.441 Y11.085 E10.05352
G1 X-21.663 Y11.085 E10.05662
G1 X-27.333 Y5.415 E10.16854
G1 X-27.555 Y5.415 E10.17164
G1 X-21.886 Y11.085 E10.28356
G1 X-22.108 Y11.085 E10.28666
G1 X-27.778 Y5.415 E10.39858
G1 X-28.000 Y5.415 E10.40168
G1 X-22.330 Y11.085 E10.51360
G1 X-22.552 Y11.085 E10.51670
G1 X-28.222 Y5.415 E10.62862
G1 X-28.445 Y5.415 E10.63172
G1 X-22.775 Y11.085 E10.74364
G1 X-22.997 Y11.085 E10.74674
G1 X-28.667 Y5.415 E10.85866
G1 X-28.889 Y5.415 E10.86176
G1 X-23.219 Y11.085 E10.97368
G1 X-23.442 Y11.085 E10.97678
G1 X-29.111 Y5.415 E11.08870
G1 X-29.334 Y5.415 E11.09180
G1 X-23.664 Y11.085 E11.20372
G1 X-23.886 Y11.085 E11.20682
G1 X-29.556 Y5.415 E11.31874
G1 X-29.778 Y5.415 E11.32184
G1 X-24.108 Y11.085 E11.43376
G1 X-24.331 Y11.085 E11.43686
G1 X-30.001 Y5.415 E11.54878
G1 X-30.223 Y5.415 E11.55189
G1 X-24.553 Y11.085 E11.66380
G1 X-24.775 Y11.085 E11.66691
G1 X-30.445 Y5.415 E11.77882
G1 X-30.667 Y5.415 E11.78193
G1 X-24.998 Y11.085 E11.89384
G1 X-25.220 Y11.085 E11.89695
G1 X-30.890 Y5.415 E12.00886
G1 X-31.112 Y5.415 E12.01197
G1 X-25.442 Y11.085 E12.12388
G1 X-25.664 Y11.085 E12.12699
G1 X-31.334 Y5.415 E12.23890
G1 X-31.557 Y5.415 E12.24201
G1 X-25.887 Y11.085 E12.35392
G1 X-26.109 Y11.085 E12.35703
G1 X-31.779 Y5.415 E12.46895
G1 X-32.001 Y5.415 E12.47205
G1 X-26.331 Y11.085 E12.58397
G1 X-26.554 Y11.085 E12.58707
G1 X-32.223 Y5.415 E12.69899
G1 X-32.446 Y5.415 E12.70209
G1 X-26.776 Y11.085 E12.81401
G1 X-26.998 Y11.085 E12.81711
G1 X-32.668 Y5.415 E12.92903
G1 X-32.890 Y5.415 E12.93213
G1 X-27.221 Y11.085 E13.04405
G1 X-27.443 Y11.085 E13.04715
G1 X-33.113 Y5.415 E13.15907
G1 X-33.335 Y5.415 E13.16217
G1 X-27.665 Y11.085 E13.27409
G1 X-27.887 Y11.085 E13.27719
G1 X-33.557 Y5.415 E13.38911
G1 X-33.779 Y5.415 E13.39221
G1 X-28.110 Y11.085 E13.50413
G1 X-28.332 Y11.085 E13.50723
G1 X-34.002 Y5.415 E13.61915
G1 X-34.224 Y5.415 E13.62225
G1 X-28.554 Y11.085 E13.73417
G1 X-28.777 Y11.085 E13.73727
G1 X-34.446 Y5.415 E13.84919
G1 X-34.669 Y5.415 E13.85229
G1 X-28.999 Y11.085 E13.96421
G1 X-29.221 Y11.085 E13.96731
G1 X-34.891 Y5.415 E14.07923
G1 X-35.113 Y5.415 E14.08233
G1 X-29.443 Y11.085 E14.19425
G1 X-29.666 Y11.085 E14.19735
G1 X-35.335 Y5.415 E14.30927
G1 X-35.558 Y5.415 E14.31237
G1 X-29.888 Y11.085 E14.42429
G1 X-30.110 Y11.085 E14.42739
G1 X-35.780 Y5.415 E14.53931
G1 X-36.002 Y5.415 E14.54241
G1 X-30.333 Y11.085 E14.65433
